static/img/menus/ico-cam-facesearch.svg

<svg width="20" height="20" viewBox="0 0 20 20" fill="none" xmlns="http://www.w3.org/2000/svg">
<path d="M5.1 1.5H4.5C2.84315 1.5 1.5 2.84315 1.5 4.5V5.1M12.9 1.5H13.5C15.1569 1.5 16.5 2.84315 16.5 4.5V5.1M5.1 17.5H4.5C2.84315 17.5 1.5 16.1569 1.5 14.5V13.9" stroke="#111111" stroke-linecap="round"/>
<path d="M12.5 6V7.5M8.5 7V10H9.5M4.5 6V7.5M6.42857 12.5C7.679 12.9863 8.92944 13.1179 10.1799 12.8947" stroke="#111111" stroke-linecap="round" stroke-linejoin="round"/>
<path d="M17.6464 17.3536C17.8417 17.5488 18.1583 17.5488 18.3536 17.3536C18.5488 17.1583 18.5488 16.8417 18.3536 16.6464L18 17L17.6464 17.3536ZM15.5 14.5L15.1464 14.8536L17.6464 17.3536L18 17L18.3536 16.6464L15.8536 14.1464L15.5 14.5Z" fill="#111111"/>
<circle cx="13.5" cy="12.5" r="3" stroke="#111111"/>
</svg>

<svg xmlns="http://www.w3.org/2000/svg" width="20" height="20" fill="none" viewBox="0 0 20 20"><path stroke="#111" stroke-linecap="round" d="M5.1 1.5h-.6a3 3 0 0 0-3 3v.6m11.4-3.6h.6a3 3 0 0 1 3 3v.6M5.1 17.5h-.6a3 3 0 0 1-3-3v-.6"/><path stroke="#111" stroke-linecap="round" stroke-linejoin="round" d="M12.5 6v1.5m-4-.5v3h1m-5-4v1.5m1.929 5q1.875.73 3.75.395"/><path fill="#111" d="M17.646 17.354a.5.5 0 0 0 .708-.708L18 17zM15.5 14.5l-.354.354 2.5 2.5L18 17l.354-.354-2.5-2.5z"/><circle cx="13.5" cy="12.5" r="3" stroke="#111"/></svg>
